X: 1
T: George I. Taylor
M: 4/4
L: 1/8
R: strathspey
K: Gmin
B<dB>A G>AB<G|F>fc>A F>Ac<A|B>dB<G c>=Bc<e|(3dcB (3cBA B<G G2 |
B<dB>A G>AB<G|F>f=e<g f>cA<F|B>dB<G c>=Bc<e|(3dcB (3cBA B<G G>f||
{f}g2 d2 {f}g2 ba/4g/4f/4=e/4| f<ac>a f>ga<f|{f}g2 d2 g2 ba/4g/4f/4=e/4 | f<c d (3c/2B/2A/2 B<G G2|
g2 G>B d>g  (3gab | a2 F>A c>f (3fga| B2 (3Bcd c<A (3ABc | (3BAG (3AG_G =G4|]
